X: 19
T: The Wildcat
T: Hornpipe, G
L: 1/16
M: C|
K: G
|: B4G2B2 D2G2B2d2| g2B2d2g2 B2d2g2B2| b2a2g2f2 a2g2f2e2| d2e2d2c2 B2c2A2^A2| 
B4G2B2 D2G2B2d2| g2B2d2g2 B2d2g2b2| a2g2f2e2 d2e2d2c2| B4A4 G8:| 
|: B8 G8| B2c2d2B2 c2d2c2B2| c8 A8| c2B2A2B2 c2e2d2c2| 
B8 G8| B2c2d2c2 B2c2d2B2| c2d2c2B2 A2c2B2A2| G4D4 G8:| 
D: Natalie MacMaster, My Roots Are Showing
D: Theresa, Donald and Marie MacLellan, The MacLellan Trio, Breton Books and Music
